svgs/sharp-solid/landmark.svg

<svg xmlns="http://www.w3.org/2000/svg" viewBox="0 0 512 512"><!--! Font Awesome Pro 6.6.0 by @fontawesome - https://fontawesome.com License - https://fontawesome.com/license (Commercial License) Copyright 2024 Fonticons, Inc. --><path d="M0 144l0 48 512 0 0-48L256 0 0 144zm128 80l-64 0 0 192L0 464l0 48 512 0 0-48-64-48 0-192-64 0 0 192-40 0 0-192-64 0 0 192-48 0 0-192-64 0 0 192-40 0 0-192z"/></svg>

<svg xmlns="http://www.w3.org/2000/svg" viewBox="0 0 512 512"><!--! Font Awesome Pro 6.4.2 by @fontawesome - https://fontawesome.com License - https://fontawesome.com/license (Commercial License) Copyright 2023 Fonticons, Inc. --><path d="M0 144v48H512V144L256 0 0 144zm128 80H64V416L0 464v48H512V464l-64-48V224H384V416H344V224H280V416H232V224H168V416H128V224z"/></svg>
